X: 32
T:La Fougère
R:---
C:Bretagne
I:abc2nwc
Z:Transcrit et/ou corrigé par Michel BELLON - 2007-04-27
Z:Pour toute observation mailto:galouvielle@free.fr
M:4/4
L:1/8
K:Gmaj
%%staves [1 2]
V:1
GA B2G2AA|GA B2G2A2| GA B2G2A2 ||
"aoublé ou triplé"B2BA Bc d2|B2BA Bc +breath+d2||[P:Intro]B2Bd cB A2|AB cB A2G2|B2Bd cB A2|AB cB A2G2|]
V:2
GD G2E2DD | GD G2E2D2 | GD G2E2D2 ||
G2GD GAB2 | G2GD GAB2 || G2GB AG D2 | DE FG FD G2 | G2GB AG D2 | DE FG FD G2 |]
%%begintext
Violon - Accordéon G/C - Galoubet en sol
Intro : Violon
1: V
2: V + A
3, 4, 5 : V + A + GT
%%endtext


%%footer $D   Galouvielle-MBe 2007 \n-- (Provence - tradition militaire)
